icons/places/32/start-here-kde.svg

<?xml version="1.0" encoding="UTF-8" standalone="no"?>
<svg
   width="32"
   height="32"
   version="1.1"
   id="svg1"
   sodipodi:docname="start-here-kde.svg"
   inkscape:version="1.4.2 (ebf0e940d0, 2025-05-08)"
   xmlns:inkscape="http://www.inkscape.org/namespaces/inkscape"
   xmlns:sodipodi="http://sodipodi.sourceforge.net/DTD/sodipodi-0.dtd"
   xmlns="http://www.w3.org/2000/svg"
   xmlns:svg="http://www.w3.org/2000/svg">
  <defs
     id="defs1">
    <style
       type="text/css"
       id="current-color-scheme">.ColorScheme-Highlight { color: #3daee9; } .ColorScheme-Text { color: #232629; } </style>
  </defs>
  <sodipodi:namedview
     id="namedview1"
     pagecolor="#ffffff"
     bordercolor="#000000"
     borderopacity="0.25"
     inkscape:showpageshadow="2"
     inkscape:pageopacity="0.0"
     inkscape:pagecheckerboard="0"
     inkscape:deskcolor="#d1d1d1"
     inkscape:zoom="24.875"
     inkscape:cx="15.979899"
     inkscape:cy="16"
     inkscape:window-width="1920"
     inkscape:window-height="1010"
     inkscape:window-x="0"
     inkscape:window-y="0"
     inkscape:window-maximized="1"
     inkscape:current-layer="svg1" />
  <g
     transform="translate(-68,-1)"
     id="start-here-kde">
    <rect
       style="fill:none;fill-rule:evenodd;stroke:none;stroke-width:1px;stroke-linecap:butt;stroke-linejoin:miter;stroke-opacity:1"
       id="rect3343"
       width="32"
       height="32"
       x="68"
       y="1" />
    <path
       id="path20"
       style="fill:currentColor"
       transform="translate(46,1)"
       d="M 32,4 A 1.5,1.5 0 0 0 30.5,5.5 1.5,1.5 0 0 0 32,7 1.5,1.5 0 0 0 33.5,5.5 1.5,1.5 0 0 0 32,4 Z m 10.5,0 -3,3 4.5,4.5 -4.5,4.5 3,3 7.5,-7.5 z m -14,9 A 2.5,2.5 0 0 0 26,15.5 2.5,2.5 0 0 0 28.5,18 2.5,2.5 0 0 0 31,15.5 2.5,2.5 0 0 0 28.5,13 Z m 6.5,9 a 3,3 0 0 0 -3,3 3,3 0 0 0 3,3 3,3 0 0 0 3,-3 3,3 0 0 0 -3,-3 z"
       class="ColorScheme-Highlight" />
  </g>
</svg>

<?xml version="1.0" encoding="UTF-8"?>
<svg xmlns="http://www.w3.org/2000/svg" xmlns:xlink="http://www.w3.org/1999/xlink" xmlns:cc="http://creativecommons.org/ns#" xmlns:dc="http://purl.org/dc/elements/1.1/" xmlns:rdf="http://www.w3.org/1999/02/22-rdf-syntax-ns#" xmlns:inkscape="http://www.inkscape.org/namespaces/inkscape" xmlns:sodipodi="http://sodipodi.sourceforge.net/DTD/sodipodi-0.dtd" width="32" height="32">
    <style type="text/css" id="current-color-scheme">
      .ColorScheme-Text {
        color:#31363b;
      }
      </style>
    <g transform="translate(-46,-1) translate(-22,0)" id="start-here-kde">
    <rect style="fill:none;fill-rule:evenodd;stroke:none;stroke-width:1px;stroke-linecap:butt;stroke-linejoin:miter;stroke-opacity:1" id="rect3343" width="32" height="32" x="68" y="1"/>
    <path id="path20" style="fill:currentColor" transform="translate(46,1)" d="M 32 4 A 1.5 1.5 0 0 0 30.5 5.5 A 1.5 1.5 0 0 0 32 7 A 1.5 1.5 0 0 0 33.5 5.5 A 1.5 1.5 0 0 0 32 4 z M 42.5 4 L 39.5 7 L 44 11.5 L 39.5 16 L 42.5 19 L 50 11.5 L 42.5 4 z M 28.5 13 A 2.5 2.5 0 0 0 26 15.5 A 2.5 2.5 0 0 0 28.5 18 A 2.5 2.5 0 0 0 31 15.5 A 2.5 2.5 0 0 0 28.5 13 z M 35 22 A 3 3 0 0 0 32 25 A 3 3 0 0 0 35 28 A 3 3 0 0 0 38 25 A 3 3 0 0 0 35 22 z " class="ColorScheme-Text"/>
  </g>
</svg>
